X:1
T:Invention 1
T:JOHANN SEBASTIAN BACH (1685-1750) BWV772
T:Invention 1
C:JOHANN SEBASTIAN BACH (1685-1750) BWV772
%%score 1 2
L:1/8
M:4/4
K:C
V:1 treble nm="P1"
V:2 bass nm="P2"
V:1
"^Public Domain" z/ C/D/E/ F/D/E/C/ GcMBc | d/G/A/B/ c/A/B/G/ dgMfg | %2
 e/a/g/f/ e/g/f/a/ g/f/e/d/ c/e/d/f/ | e/d/c/B/ A/c/B/d/ c/B/A/G/ ^F/A/G/B/ | %4
 AD Pc>d B/A/G/^F/ E/G/F/A/ | G/B/A/c/ B/d/c/e/ d/B/4c/4d/g/ MBA/G/ | G z z2 z/ G/A/B/ c/A/B/G/ | %7
 M^F z z2 z/ A/B/c/ d/B/c/A/ | B z z2 z/ d/c/B/ A/c/B/d/ | c z z2 z/ e/d/c/ B/d/^c/e/ | %10
 d^cde fA=Bc | d^F^GA B=c d2- | d/E/^F/^G/ A/F/G/E/ e/d/c/e/ d/c/B/d/ | %13
 c/a/^g/b/ a/e/=f/d/ ^G/f/e/d/ cB/A/ | A/a/=g/f/ e/g/f/a/ g4- | g/e/f/g/ a/f/g/e/ f4- | %16
 f/g/f/e/ d/f/e/g/ f4- | f/d/e/f/ g/e/f/d/ e4- | e/c/d/e/ f/d/e/c/ d/e/f/g/ a/f/g/e/ | %19
 f/g/a/b/ c'/a/b/g/ c'g ed/c/ | c/_B/A/G/ F/A/G/B/ A/=B/c/E/ D/c/F/B/ | !fermata![EGc]8 |] %22
V:2
 z4 z/ C,/D,/E,/ F,/D,/E,/C,/ | G,G,, z2 z/ G,/A,/B,/ C/A,/B,/G,/ | CB,CD EG,A,B, | %3
 CE,^F,G, A,B, C2- | C/D,/E,/^F,/ G,/E,/F,/D,/ G,B,,C,D, | E,^F,G,E, B,,>C, D,D,, | %6
 z/ G,,/A,,/B,,/ C,/A,,/B,,/G,,/ D,G,^F,G, | A,/D,/E,/^F,/ G,/E,/F,/D,/ A,DCD | %8
 G,/[K:treble]G/=F/E/ D/F/E/G/ FEFD | E/A/G/F/ E/G/F/A/ GFGE | %10
 F/_B/A/G/ F/A/G/B/ A/G/F/E/ D/F/E/G/ | F/E/D/C/ =B,/D/C/E/ D/C/B,/A,/ ^G,/B,/A,/C/ | %12
[K:bass] B,E, PD>E C/B,/A,/=G,/ ^F,/A,/^G,/B,/ | A,/C/B,/D/ C/E/D/=F/ EA,EE, | %14
 A,A,, z2 z/ E/D/C/ B,/D/^C/E/ | D4- D/A,/B,/=C/ D/B,/C/A,/ | B,4- B,/D/C/B,/ A,/C/B,/D/ | %17
 C4- C/G,/A,/_B,/ C/A,/B,/G,/ | A,_B,A,G, F,DCB, | A,FED E/D,/E,/F,/ G,/E,/F,/D,/ | %20
 E,C,D,E, F,/D,/E,/F,/ G,G,, | !fermata![C,,C,]8 |] %22

